!!!OTL: ES WOLLTEN DIE VOEGELCHEN HOCHZEIT MACHN
!!!ARE: Europa, Mitteleuropa, Deutschland, Berlin
!!!SCT: E0163D
!!!YEM: Copyright 1995, estate of Helmut Schaffrath.
**kern
*ICvox
*Ivox
*M6/8
*k[f#]
*G:
{8d
=1
8g
8g
8g
8g
8a
8b
=2
4b
8a
4a}
{8dd
=3
4b
8b
4a
8a
=4
4.g
8g
8r}
{8d
=5
8g
8g
8g
8g
8a
8b
=6
4b
8a
4a}
{8dd
=7
4b
8b
4a
8a
=8
4.g
8g
8r}
{8d
=9
8g
8g
4.r
8b
=10
8b
8a
4.r}
{8a
=11
4b
8cc
4dd
8g
=12
8a
8g
4.r}
{16g
16b
=13
8.dd
16dd
8dd
8dd
8cc
16b
16b
=14
8.cc
16cc
8cc
4cc}
{16dd
16cc
=15
8b
8b
8b
8.dd
16cc
8b
=16
8b
8a
8a
4a}
{8dd
=17
8.b
16b
8b
8a
8g
8a
=18
4g
4.r}
==
!!!AGN: erzaehlendes Volks - Lied, Sage, Tier - Maerchen, Ballade ?
!!!ONB: ESAC (Essen Associative Code) Database: ERK1
!!!AMT: compound duple
!!!AIN: vox
!!!EED: Helmut Schaffrath
!!!EEV: 1.0
*-
